icons/h-4.svg

<svg xmlns="http://www.w3.org/2000/svg" viewBox="0 0 24 24">
    <g>
        <path fill="none" d="M0 0H24V24H0z"/>
        <path d="M13 20h-2v-7H4v7H2V4h2v7h7V4h2v16zm9-12v8h1.5v2H22v2h-2v-2h-5.5v-1.34l5-8.66H22zm-2 3.133L17.19 16H20v-4.867z"/>
    </g>
</svg>

<svg viewBox="0 0 24 24" fill="currentColor" xmlns="http://www.w3.org/2000/svg">
    <path d="M13 20H11V13H4V20H2V4H4V11H11V4H13V20ZM22 8V16H23.5V18H22V20H20V18H14.5V16.66L19.5 8H22ZM20 11.133L17.19 16H20V11.133Z"/>
</svg>
